X: 14183
T: Frost Is All Over, The
R: jig
M: 6/8
K: Dmajor
|:A|def edB|AFD E2 D|DFA AFA|Bee edc|
dd/e/f edB|AFD E2 F|D2 A AFA|Bdc d2:|
|:e|fef afd|gfg bag|f2 f agf|g2 g e2 g|
[1 f3 afd|g3 bag|ff/g/a efg|fdc d2:|
[2 f/g/af gfe|fdB AFA|Bcd efg|fg/a/f e2||

